public/avatar/hat/70.svg

<svg xmlns:xlink="http://www.w3.org/1999/xlink" height="92.9" width="100.7" xmlns="http://www.w3.org/2000/svg"><use height="24.7" transform="translate(20.05 39.1)" width="37.7" xlink:href="#a"/><defs><g id="a"><path d="M-8.95 2.3q1.35 1.9.45 2.2-.75.3-.7 1.15.05 1.25-.3 1.85-.8 1.4-1 3l-.85 1.9-1.15 1.1-1.25.05q-.3-1.25-.75-2.05-.5-.9-.1-1.55l1.1-2.45q.7-2.75 3-7l1.55 1.8" fill="#8d9caf" fill-rule="evenodd" transform="translate(18.6 10.65)"/><path d="M-8.95 2.3-10.5.5q-2.3 4.25-3 7l-1.1 2.45q-.4.65.1 1.55.45.8.75 2.05l1.25-.05 1.15-1.1.85-1.9q.2-1.6 1-3 .35-.6.3-1.85-.05-.85.7-1.15.9-.3-.45-2.2Z" fill="none" stroke="#000" stroke-linecap="round" stroke-linejoin="round" transform="translate(18.6 10.65)"/><path d="m14.1 7.5 1.1 2.45q.4.65-.1 1.55-.45.8-.75 2.05l-1.25-.05-1.15-1.1-.85-1.9q-.2-1.6-1-3-.35-.6-.3-1.85.05-.85-.7-1.15-.9-.3.45-2.2L11.1.5q2.3 4.25 3 7" fill="#8d9caf" fill-rule="evenodd" transform="translate(18.6 10.65)"/><path d="m14.1 7.5 1.1 2.45q.4.65-.1 1.55-.45.8-.75 2.05l-1.25-.05-1.15-1.1-.85-1.9q-.2-1.6-1-3-.35-.6-.3-1.85.05-.85-.7-1.15-.9-.3.45-2.2L11.1.5q2.3 4.25 3 7Z" fill="none" stroke="#000" stroke-linecap="round" stroke-linejoin="round" transform="translate(18.6 10.65)"/><path d="M10.55-3.5 11-1.75q1 3.4.2 4.6-.85 1.4-3.6 2.55Q4.25 6.9-.15 7.05q-8.55.3-11.15-2.3-1.4-1.4.7-6.85l.85-2.95q1.1-4.25 2.4-5Q-4.7-11.5.3-9.3l2.05.8L6-8.05l2.9.5q.75.5 1.65 4.05" fill="#000500" fill-rule="evenodd" transform="translate(18.6 10.65)"/><path d="M13.4-4.75q2.1-.5 3.6 1.2 2.9 3 1.75 6.95-.95 3.3-8.2 5.2-5.85 1.55-12.6 1.55l-9.35-.8-1.6-.2q-3.9-.55-5.05-4.8-1.35-5.2.75-6.75 2.1-1.5 3.75-1.5 1.1-.05 2.4.6 1.1.6 1.2 1 .1.3 9.25-1.35l10.95 1.1-.2-.9q0-.45 3.35-1.3" fill-rule="evenodd" transform="translate(18.6 10.65)"/><path d="M13.65-3.75q2.45-.6 3.75 1.65 1.3 2.2.4 5.25-.8 2.75-7.55 4.5-5.8 1.5-12.3 1.5l-10.8-1q-3.35-.4-4.15-4.8-.8-4.25 1.4-5.85 2.7-2.05 3.5 1 .2.75 0 1.05l4.3-1q5.25-1.2 7.1-1.2L12.15-1.3l-.8-1.3q-.5-.65 0-.8l2.3-.35" fill-rule="evenodd" transform="translate(18.6 10.65)"/><path d="M8.35-6.7 10-1.75q.85 3.35.35 4.05-.7 1.15-3.25 2.25Q3.95 5.9-.2 6.05q-8.2.3-10.4-2-.9-.8.9-5.8l1.3-4.45q.7-2.5 1.55-3 1.75-1 4.55-.05l4.35 1.7 3.8.5 2.5.35" fill-rule="evenodd" transform="translate(18.6 10.65)"/><path d="M8.15 4.75Q2.85 7.5-.2 7.6l-5.6-1.05Q-9.65 5.5-10.1 5.1q-.95-.75-.75-1.5l.35-2.65Q-2.05 4.2-.55 4.2 2.6 4.2 6.8 2l3.5-2.05q.6 2.25.05 3-.95 1.2-2.2 1.8" fill="#c5cdd6" fill-rule="evenodd" transform="translate(18.6 10.65)"/><path d="m-3.2-7.65 3.4 2.6q.85 0 3.35-1.75" fill="none" stroke="#8d9caf" stroke-linecap="round" stroke-linejoin="round" transform="translate(18.6 10.65)"/></g></defs></svg>

<?xml version="1.0" encoding="UTF-8" standalone="no"?>
<svg xmlns:xlink="http://www.w3.org/1999/xlink" height="92.9px" width="100.7px" xmlns="http://www.w3.org/2000/svg">
  <g transform="matrix(1.0, 0.0, 0.0, 1.0, 38.65, 49.75)">
    <use height="24.7" transform="matrix(1.0, 0.0, 0.0, 1.0, -18.6, -10.65)" width="37.7" xlink:href="#shape0"/>
  </g>
  <defs>
    <g id="shape0" transform="matrix(1.0, 0.0, 0.0, 1.0, 18.6, 10.65)">
      <path d="M-8.95 2.3 Q-7.6 4.2 -8.5 4.5 -9.25 4.8 -9.2 5.65 -9.15 6.9 -9.5 7.5 -10.3 8.9 -10.5 10.5 L-11.35 12.4 -12.5 13.5 -13.75 13.55 Q-14.05 12.3 -14.5 11.5 -15.0 10.6 -14.6 9.95 L-13.5 7.5 Q-12.8 4.75 -10.5 0.5 L-8.95 2.3" fill="#8d9caf" fill-rule="evenodd" stroke="none"/>
      <path d="M-8.95 2.3 L-10.5 0.5 Q-12.8 4.75 -13.5 7.5 L-14.6 9.95 Q-15.0 10.6 -14.5 11.5 -14.05 12.3 -13.75 13.55 L-12.5 13.5 -11.35 12.4 -10.5 10.5 Q-10.3 8.9 -9.5 7.5 -9.15 6.9 -9.2 5.65 -9.25 4.8 -8.5 4.5 -7.6 4.2 -8.95 2.3 Z" fill="none" stroke="#000000" stroke-linecap="round" stroke-linejoin="round" stroke-width="1.0"/>
      <path d="M14.1 7.5 L15.2 9.95 Q15.6 10.6 15.1 11.5 14.65 12.3 14.35 13.55 L13.1 13.5 11.95 12.4 11.1 10.5 Q10.9 8.9 10.1 7.5 9.75 6.9 9.8 5.65 9.85 4.8 9.1 4.5 8.2 4.2 9.55 2.3 L11.1 0.5 Q13.4 4.75 14.1 7.5" fill="#8d9caf" fill-rule="evenodd" stroke="none"/>
      <path d="M14.1 7.5 L15.2 9.95 Q15.6 10.6 15.1 11.5 14.65 12.3 14.35 13.55 L13.1 13.5 11.95 12.4 11.1 10.5 Q10.9 8.9 10.1 7.5 9.75 6.9 9.8 5.65 9.85 4.8 9.1 4.5 8.2 4.2 9.55 2.3 L11.1 0.5 Q13.4 4.75 14.1 7.5 Z" fill="none" stroke="#000000" stroke-linecap="round" stroke-linejoin="round" stroke-width="1.0"/>
      <path d="M10.55 -3.5 L11.0 -1.75 Q12.0 1.65 11.2 2.85 10.35 4.25 7.6 5.4 4.25 6.9 -0.15 7.05 -8.7 7.35 -11.3 4.75 -12.7 3.35 -10.6 -2.1 L-9.75 -5.05 Q-8.65 -9.3 -7.35 -10.05 -4.7 -11.5 0.3 -9.3 L2.35 -8.5 6.0 -8.05 8.9 -7.55 Q9.65 -7.05 10.55 -3.5" fill="#000500" fill-rule="evenodd" stroke="none"/>
      <path d="M13.4 -4.75 Q15.5 -5.25 17.0 -3.55 19.9 -0.55 18.75 3.4 17.8 6.7 10.55 8.6 4.7 10.15 -2.05 10.15 L-11.4 9.35 -13.0 9.15 Q-16.9 8.6 -18.05 4.35 -19.4 -0.85 -17.3 -2.4 -15.2 -3.9 -13.55 -3.9 -12.45 -3.95 -11.15 -3.3 -10.05 -2.7 -9.95 -2.3 -9.85 -2.0 -0.7 -3.65 L10.25 -2.55 10.05 -3.45 Q10.05 -3.9 13.4 -4.75" fill="#000000" fill-rule="evenodd" stroke="none"/>
      <path d="M13.65 -3.75 Q16.1 -4.35 17.4 -2.1 18.7 0.1 17.8 3.15 17.0 5.9 10.25 7.65 4.45 9.15 -2.05 9.15 L-12.85 8.15 Q-16.2 7.75 -17.0 3.35 -17.8 -0.9 -15.6 -2.5 -12.9 -4.55 -12.1 -1.5 -11.9 -0.75 -12.1 -0.45 L-7.8 -1.45 Q-2.55 -2.65 -0.7 -2.65 L12.15 -1.3 11.35 -2.6 Q10.85 -3.25 11.35 -3.4 L13.65 -3.75" fill="#000000" fill-rule="evenodd" stroke="none"/>
      <path d="M8.35 -6.7 L10.0 -1.75 Q10.85 1.6 10.35 2.3 9.65 3.45 7.1 4.55 3.95 5.9 -0.2 6.05 -8.4 6.35 -10.6 4.05 -11.5 3.25 -9.7 -1.75 L-8.4 -6.2 Q-7.7 -8.7 -6.85 -9.2 -5.1 -10.2 -2.3 -9.25 L2.05 -7.55 5.85 -7.05 8.35 -6.7" fill="#000000" fill-rule="evenodd" stroke="none"/>
      <path d="M8.15 4.75 Q2.85 7.5 -0.2 7.6 L-5.8 6.55 Q-9.65 5.5 -10.1 5.1 -11.05 4.35 -10.85 3.6 L-10.5 0.95 Q-2.05 4.2 -0.55 4.2 2.6 4.2 6.8 2.0 L10.3 -0.05 Q10.9 2.2 10.35 2.95 9.4 4.15 8.15 4.75" fill="#c5cdd6" fill-rule="evenodd" stroke="none"/>
      <path d="M-3.2 -7.65 L0.2 -5.05 Q1.05 -5.05 3.55 -6.8" fill="none" stroke="#8d9caf" stroke-linecap="round" stroke-linejoin="round" stroke-width="1.0"/>
    </g>
  </defs>
</svg>
